icons/op-logo-google-plus-16.svg

<svg width="16" height="16" viewBox="0 0 16 16" fill="none" xmlns="http://www.w3.org/2000/svg">
<path d="M8.43698 12.8674C8.43698 12.7326 8.40336 12.5979 8.36975 12.4632C8.33613 12.3284 8.33613 12.2274 8.30252 12.1263C8.26891 12.0253 8.20168 11.8905 8.13445 11.7895C8.03361 11.6547 7.96639 11.5874 7.93277 11.4863L7.66387 11.2168C7.56303 11.0821 7.46219 11.0147 7.39496 10.9474C7.32773 10.9137 7.22689 10.8126 7.09244 10.7116C6.95798 10.6105 6.85714 10.5432 6.78992 10.5095C6.7563 10.4421 6.62185 10.3747 6.4874 10.2737C6.31933 10.1726 6.21849 10.1053 6.18487 10.0716C6.08403 10.0716 5.91597 10.0379 5.71429 10.0379C5.34454 10.0379 5.0084 10.0716 4.67227 10.1053C4.36975 10.1726 4 10.24 3.66387 10.3747C3.29412 10.4758 2.9916 10.6105 2.72269 10.8126C2.45378 10.9811 2.21849 11.2168 2.05042 11.52C1.88235 11.8232 1.78151 12.16 1.78151 12.5642C1.78151 13.0021 1.91597 13.3726 2.11765 13.7095C2.35294 14.08 2.65546 14.3495 3.02521 14.5179C3.39496 14.72 3.76471 14.8884 4.16807 14.9558C4.57143 15.0568 4.97479 15.1242 5.41177 15.1242C5.78151 15.1242 6.15126 15.0905 6.4874 14.9895C6.82353 14.9221 7.12605 14.7874 7.42857 14.6189C7.73109 14.4505 7.96639 14.2147 8.16807 13.9116C8.33613 13.6084 8.43698 13.2716 8.43698 12.8674ZM7.2605 4.54737C7.2605 4.17684 7.22689 3.77263 7.12605 3.33474C6.9916 2.89684 6.85714 2.49263 6.65546 2.08842C6.45378 1.68421 6.18487 1.34737 5.84874 1.07789C5.51261 0.808421 5.14286 0.673684 4.70588 0.673684C4.10084 0.673684 3.66387 0.909474 3.32773 1.34737C2.9916 1.78526 2.82353 2.32421 2.82353 2.93053C2.82353 3.23368 2.85714 3.53684 2.95798 3.87368C3.02521 4.21053 3.12605 4.54737 3.29412 4.88421C3.42857 5.22105 3.63025 5.52421 3.83193 5.79368C4.03361 6.06316 4.26891 6.26526 4.57143 6.43368C4.87395 6.60211 5.17647 6.66947 5.51261 6.66947C6.11765 6.66947 6.58824 6.50105 6.85714 6.09684C7.12605 5.72632 7.2605 5.18737 7.2605 4.54737ZM6.01681 0H10.2185L8.90756 0.741053H7.63025C8.06723 1.04421 8.43698 1.44842 8.67227 1.95368C8.90756 2.49263 9.04202 3.03158 9.04202 3.57053C9.04202 4.07579 8.97479 4.48 8.84034 4.85053C8.67227 5.22105 8.5042 5.52421 8.30252 5.72632L7.66387 6.36632C7.42857 6.53474 7.2605 6.73684 7.12605 6.93895C6.95798 7.14105 6.89076 7.37684 6.89076 7.61263C6.89076 7.78105 6.95798 7.91579 7.05882 8.08421C7.15966 8.25263 7.29412 8.38737 7.46219 8.55579C7.63025 8.69053 7.83193 8.85895 8.03361 9.02737C8.23529 9.1621 8.43698 9.36421 8.63866 9.53263C8.84034 9.73474 9.04202 9.97053 9.21008 10.1726C9.37815 10.4084 9.51261 10.6779 9.61345 11.0147C9.71429 11.3179 9.78151 11.6547 9.78151 12.0253C9.78151 13.0358 9.34454 13.9453 8.43698 14.7537C7.46219 15.5958 6.11765 16 4.40336 16C4.03361 16 3.63025 15.9663 3.2605 15.8989C2.85714 15.8316 2.4874 15.7305 2.08403 15.5958C1.68067 15.4274 1.34454 15.2589 1.04202 15.0232C0.739496 14.7874 0.504202 14.5179 0.302521 14.1811C0.10084 13.8105 0 13.44 0 13.0021C0 12.5979 0.134454 12.16 0.369748 11.6884C0.571429 11.2842 0.87395 10.9474 1.27731 10.6442C1.68067 10.3411 2.15126 10.1053 2.68908 9.93684C3.19328 9.8021 3.69748 9.66737 4.16807 9.6C4.63866 9.53263 5.10924 9.49895 5.61345 9.46526C5.21008 8.92632 5.0084 8.45474 5.0084 8.05053V7.81474C5.04202 7.74737 5.04202 7.68 5.07563 7.61263C5.07563 7.57895 5.10924 7.51158 5.14286 7.41053C5.17647 7.34316 5.17647 7.27579 5.21008 7.20842C4.94118 7.24211 4.7395 7.27579 4.53782 7.27579C3.56303 7.27579 2.7563 6.93895 2.08403 6.33263C1.41176 5.69263 1.04202 4.88421 1.04202 3.94105C1.04202 3.06526 1.34454 2.25684 1.98319 1.54947C2.58824 0.842105 3.32773 0.370526 4.20168 0.168421C4.80672 0.0336842 5.41177 0 6.01681 0ZM16 2.45895V3.67158H13.5462V6.13053H12.3025V3.67158H9.84874V2.45895H12.3025V0H13.5462V2.45895H16Z" fill="black"/>
</svg>

<svg xmlns="http://www.w3.org/2000/svg" width="16" height="16" viewBox="0 0 16 16"><path d="M8.437 12.867c0-.134-.034-.269-.067-.404-.034-.135-.034-.236-.067-.337a1.534 1.534 0 0 0-.169-.336c-.1-.135-.168-.203-.201-.304l-.269-.269c-.101-.135-.202-.202-.269-.27-.067-.033-.168-.134-.303-.235a2.336 2.336 0 0 0-.302-.203c-.034-.067-.168-.134-.303-.235a2.15 2.15 0 0 1-.302-.202c-.101 0-.269-.034-.471-.034-.369 0-.706.034-1.042.067-.302.068-.672.135-1.008.27-.37.101-.672.236-.941.438a1.94 1.94 0 0 0-.673.707c-.168.303-.268.64-.268 1.044 0 .438.134.809.336 1.146.235.37.537.64.907.808.37.202.74.37 1.143.438.403.101.807.168 1.244.168.37 0 .739-.033 1.075-.135.337-.067.639-.202.942-.37.302-.169.537-.404.739-.707.168-.304.269-.64.269-1.045Zm-1.176-8.32c0-.37-.034-.774-.135-1.212-.134-.438-.269-.842-.471-1.247a2.969 2.969 0 0 0-.806-1.01A1.754 1.754 0 0 0 4.706.674c-.605 0-1.042.235-1.378.673-.336.438-.504.977-.504 1.584 0 .303.033.606.134.943.067.337.168.673.336 1.01.135.337.336.64.538.91.202.269.437.471.739.64.303.168.605.235.942.235.605 0 1.075-.168 1.344-.572.269-.371.404-.91.404-1.55ZM6.017 0h4.202L8.908.741H7.63c.437.303.807.707 1.042 1.213.236.539.37 1.078.37 1.617 0 .505-.067.909-.202 1.28-.168.37-.336.673-.537.875l-.639.64a2.17 2.17 0 0 0-.538.573 1.031 1.031 0 0 0-.235.674c0 .168.067.303.168.471.101.169.235.303.403.472.168.135.37.303.572.471.201.135.403.337.605.506.201.202.403.438.571.64.168.235.303.505.403.842.101.303.169.64.169 1.01 0 1.011-.437 1.92-1.345 2.729C7.462 15.596 6.118 16 4.403 16c-.369 0-.773-.034-1.143-.101a7.588 7.588 0 0 1-1.176-.303c-.403-.169-.739-.337-1.042-.573a2.947 2.947 0 0 1-.739-.842A2.366 2.366 0 0 1 0 13.002c0-.404.134-.842.37-1.314.201-.404.504-.741.907-1.044a4.63 4.63 0 0 1 1.412-.707c.504-.135 1.008-.27 1.479-.337.471-.067.941-.101 1.445-.135-.403-.539-.605-1.01-.605-1.414v-.236c.034-.068.034-.135.068-.202 0-.034.033-.101.067-.202.033-.068.033-.135.067-.203-.269.034-.471.068-.672.068a3.542 3.542 0 0 1-2.454-.943c-.672-.64-1.042-1.449-1.042-2.392 0-.876.303-1.684.941-2.392C2.588.842 3.328.371 4.202.168 4.807.034 5.412 0 6.017 0ZM16 2.459v1.213h-2.454v2.459h-1.243V3.672H9.849V2.459h2.454V0h1.243v2.459H16Z"/></svg>
